lib/icons/note.svg

<svg width="14" height="14" viewBox="0 0 14 14" fill="none" xmlns="http://www.w3.org/2000/svg">
<path fill-rule="evenodd" clip-rule="evenodd" d="M2.12733 14C1.56313 14 1.02203 13.7759 0.623081 13.3769C0.224129 12.978 0 12.4369 0 11.8727V2.12733C0 0.95615 0.956149 0 2.12733 0H11.8727C12.4369 0 12.978 0.22413 13.3769 0.623082C13.7759 1.02203 14 1.56313 14 2.12733V7.81211C14 7.94554 13.947 8.07351 13.8526 8.16786L8.16786 13.8526C8.07351 13.947 7.94554 14 7.81211 14H2.12733ZM1.33458 12.6654C1.54483 12.8757 1.82999 12.9938 2.12733 12.9938H7.41425C7.34802 12.9086 7.30857 12.8015 7.30857 12.6853V7.81258C7.30857 7.53472 7.53382 7.30947 7.81168 7.30947H12.6844C12.801 7.30947 12.9084 7.3492 12.9938 7.41586V2.12733C12.9938 1.82999 12.8757 1.54483 12.6654 1.33458C12.4552 1.12433 12.17 1.00622 11.8727 1.00622H2.12733C1.51187 1.00622 1.00621 1.51187 1.00621 2.12733V11.8727C1.00621 12.17 1.12433 12.4552 1.33458 12.6654ZM12.2818 8.31569L8.31479 12.2827V8.31569H12.2818Z" fill="#14C393"/>
</svg>

<svg width="14" height="14" fill="none" xmlns="http://www.w3.org/2000/svg"><path fill-rule="evenodd" clip-rule="evenodd" d="M2.127 14A2.127 2.127 0 0 1 0 11.873V2.127C0 .957.956 0 2.127 0h9.746A2.127 2.127 0 0 1 14 2.127v5.685a.503.503 0 0 1-.147.356l-5.685 5.685a.503.503 0 0 1-.356.147H2.127Zm-.792-1.335c.21.21.495.329.792.329h5.287a.501.501 0 0 1-.105-.309V7.813c0-.278.225-.504.503-.504h4.872c.117 0 .224.04.31.107V2.127a1.12 1.12 0 0 0-1.121-1.12H2.127c-.615 0-1.12.505-1.12 1.12v9.746c0 .297.117.582.328.792Zm10.947-4.35-3.967 3.968V8.316h3.967Z" fill="#14C393"/></svg>
